img/image/design/logo-footer.svg

<svg width="126" height="62" viewBox="0 0 126 62" fill="none" xmlns="http://www.w3.org/2000/svg">
<path fill-rule="evenodd" clip-rule="evenodd" d="M57.0423 61.8473C53.3618 51.9708 49.2631 31.1872 59.6058 26.8153C74.3956 20.5638 74.4126 53.0865 55.2453 39.4413C56.1269 44.4504 60.6267 46.2469 66.7464 45.4999C79.276 43.8453 77.8652 22.0614 61.9848 22.7138C43.748 23.4626 47.3795 57.795 57.0423 61.8473Z" fill="white"/>
<path fill-rule="evenodd" clip-rule="evenodd" d="M98.969 39.2485C96.1794 40.5986 96.6767 40.835 93.4784 42.1832C82.7232 45.4981 78.0726 34.3055 83.4615 28.7309C92.61 19.2667 103.52 35.3191 87.9538 35.9922L83.9399 36.6408C89.4795 39.9084 100.214 38.0628 99.0236 29.4646C98.0178 22.2014 87.6657 20.5885 82.2918 25.1154C76.8295 29.7161 76.287 38.9705 81.9923 43.3462C87.6506 47.6859 97.9876 45.9708 98.969 39.2485Z" fill="white"/>
<path fill-rule="evenodd" clip-rule="evenodd" d="M32.5162 2.08351C37.4983 3.93855 42.0339 7.83582 44.8819 12.3098C47.2439 16.0199 48.5793 20.3029 48.3043 24.7316C47.1422 43.4143 31.307 50.0648 14.9425 49.6658L13.5166 49.6318L12.5842 48.5464C6.89961 41.9318 0.740329 33.8158 0.0867284 24.7637C-0.472693 17.024 1.61996 9.26539 7.94688 4.35645C15.0009 -1.116 24.4941 -0.904207 32.5181 2.08541L32.5162 2.08351Z" fill="white"/>
<path fill-rule="evenodd" clip-rule="evenodd" d="M31.3977 5.1127C38.3707 7.71089 45.645 15.6662 45.0932 24.5291C43.7634 45.9027 21.4505 46.591 15.02 46.4359C11.2378 42.0356 3.94083 33.4753 3.29477 24.5291C2.02524 6.96396 15.9825 -0.630151 31.3977 5.1127Z" fill="#E84F22"/>
<path fill-rule="evenodd" clip-rule="evenodd" d="M15.4287 5.87287C17.5685 12.4326 36.1254 20.9438 42.5804 18.7106C38.591 8.22523 24.6281 2.78115 15.4287 5.87287Z" fill="#FFCBA1"/>
<path fill-rule="evenodd" clip-rule="evenodd" d="M113.651 37.8946C113.636 37.9173 113.621 37.94 113.606 37.9645C113.357 38.3446 113.111 38.7247 112.862 39.1048C112.655 39.4206 112.446 39.7364 112.231 40.0484C112.077 40.2715 111.922 40.5003 111.745 40.7064C110.754 41.8618 109.739 43.0002 108.528 43.9286C107.191 44.9554 105.678 45.6702 103.97 45.7118C103.764 45.7175 103.559 45.7061 103.356 45.691C103.199 45.6797 103.043 45.6664 102.888 45.64C102.742 45.6135 102.54 45.5662 102.525 45.3828C102.517 45.2939 102.568 45.2164 102.64 45.1691C105.16 43.5259 107.332 41.4723 109.117 39.0443C109.773 38.1536 110.368 37.2214 110.918 36.2627C111.28 35.6292 111.617 34.9844 111.964 34.3415C111.619 33.7004 111.282 33.0537 110.918 32.4202C110.368 31.4615 109.773 30.5293 109.117 29.6386C107.332 27.2125 105.16 25.157 102.64 23.5138C102.566 23.4665 102.517 23.389 102.525 23.3001C102.54 23.1167 102.742 23.0694 102.888 23.0429C103.043 23.0146 103.199 23.0013 103.356 22.9919C103.559 22.9787 103.766 22.9673 103.97 22.9711C105.678 23.0108 107.189 23.7256 108.528 24.7543C109.737 25.6827 110.754 26.823 111.745 27.9765C111.922 28.1826 112.077 28.4114 112.231 28.6345C112.446 28.9465 112.655 29.2623 112.862 29.5781C113.111 29.9582 113.357 30.3383 113.606 30.7184C113.621 30.7411 113.636 30.7637 113.651 30.7883C113.666 30.7656 113.681 30.7429 113.696 30.7184C113.945 30.3383 114.192 29.9582 114.44 29.5781C114.648 29.2623 114.857 28.9465 115.071 28.6345C115.226 28.4114 115.38 28.1826 115.557 27.9765C116.548 26.8211 117.563 25.6827 118.775 24.7543C120.112 23.7275 121.624 23.0127 123.333 22.9711C123.538 22.9654 123.743 22.9768 123.947 22.9919C124.103 23.0032 124.259 23.0165 124.414 23.0429C124.561 23.0694 124.762 23.1167 124.777 23.3001C124.785 23.389 124.734 23.4665 124.663 23.5138C122.142 25.157 119.971 27.2106 118.185 29.6386C117.529 30.5293 116.934 31.4615 116.384 32.4202C116.023 33.0537 115.685 33.6985 115.339 34.3415C115.684 34.9825 116.021 35.6292 116.384 36.2627C116.934 37.2214 117.529 38.1536 118.185 39.0443C119.971 41.4704 122.142 43.5259 124.663 45.1691C124.736 45.2164 124.785 45.2939 124.777 45.3828C124.762 45.5662 124.561 45.6135 124.414 45.64C124.259 45.6683 124.103 45.6816 123.947 45.691C123.743 45.7042 123.536 45.7156 123.333 45.7118C121.624 45.6721 120.114 44.9573 118.775 43.9286C117.565 43.0002 116.548 41.8599 115.557 40.7064C115.38 40.5003 115.226 40.2715 115.071 40.0484C114.857 39.7364 114.648 39.4206 114.44 39.1048C114.192 38.7247 113.945 38.3446 113.696 37.9645C113.681 37.9418 113.666 37.9192 113.651 37.8946Z" fill="white"/>
<path d="M53.2791 11.8427V12.582H54.8669V16.9558H55.7823V12.582H57.3721V11.8427H53.2791Z" fill="white"/>
<path d="M60.2031 11.7273C58.7923 11.7273 57.6772 12.7314 57.6772 14.4427C57.6772 16.0595 58.7396 17.073 60.1184 17.073C61.3502 17.073 62.6536 16.2486 62.6536 14.3576C62.6536 12.7938 61.6648 11.7273 60.2012 11.7273H60.2031ZM60.1824 12.4251C61.2768 12.4251 61.7081 13.5237 61.7081 14.3898C61.7081 15.5414 61.0451 16.3753 60.1617 16.3753C59.2576 16.3753 58.6153 15.53 58.6153 14.4106C58.6153 13.4386 59.088 12.4251 60.1824 12.4251Z" fill="white"/>
<path d="M63.8232 19.0472H64.7386V16.2694H64.7593C65.0645 16.7762 65.654 17.073 66.3264 17.073C67.5263 17.073 68.6414 16.1654 68.6414 14.3255C68.6414 12.773 67.7146 11.7273 66.4847 11.7273C65.654 11.7273 65.0532 12.0979 64.6746 12.7201H64.6538L64.6124 11.8426H63.7817C63.8025 12.3286 63.8232 12.8562 63.8232 13.5124V19.0472ZM64.7386 13.9965C64.7386 13.8698 64.7706 13.7317 64.8026 13.6164C64.9816 12.9186 65.5711 12.4648 66.2021 12.4648C67.1816 12.4648 67.7184 13.3422 67.7184 14.3671C67.7184 15.5395 67.1496 16.3431 66.172 16.3431C65.509 16.3431 64.9514 15.8988 64.7838 15.2558C64.7631 15.1405 64.7424 15.0138 64.7424 14.8757V13.9983L64.7386 13.9965Z" fill="white"/>
<path d="M69.7886 11.8427V16.9558H70.704V12.5934H72.9153V11.8427H69.7886Z" fill="white"/>
<path d="M75.8083 11.7273C74.3975 11.7273 73.2825 12.7314 73.2825 14.4427C73.2825 16.0595 74.3448 17.073 75.7236 17.073C76.9554 17.073 78.2589 16.2486 78.2589 14.3576C78.2589 12.7938 77.27 11.7273 75.8065 11.7273H75.8083ZM75.7876 12.4251C76.882 12.4251 77.3133 13.5237 77.3133 14.3898C77.3133 15.5414 76.6503 16.3753 75.7669 16.3753C74.8628 16.3753 74.2205 15.53 74.2205 14.4106C74.2205 13.4386 74.6933 12.4251 75.7876 12.4251Z" fill="white"/>
<path d="M79.4077 16.956C79.6808 16.9768 80.2704 17.0203 80.8392 17.0203C81.8394 17.0203 83.5233 16.852 83.5233 15.5094C83.5233 14.77 82.9752 14.3464 82.2293 14.2424V14.2216C82.8076 14.0949 83.2916 13.7035 83.2916 13.07C83.2916 11.9298 81.8808 11.7917 81.0295 11.7917C80.4305 11.7917 79.7675 11.8447 79.4096 11.9071V16.9579L79.4077 16.956ZM80.2911 12.4763C80.5115 12.4555 80.7017 12.4347 81.0069 12.4347C81.9336 12.4347 82.3743 12.6767 82.3743 13.1854C82.3743 13.7867 81.6699 13.989 80.9862 13.989H80.2911V12.4782V12.4763ZM80.2798 14.5998H80.9541C81.8375 14.5998 82.574 14.7587 82.574 15.498C82.574 16.2374 81.6473 16.3849 81.0276 16.3849C80.7338 16.3849 80.5435 16.3736 80.2798 16.3433V14.5998Z" fill="white"/>
<path d="M84.6686 11.8427V16.935C85.0472 16.9766 85.5219 17.0088 86.0361 17.0088C86.7104 17.0088 87.5298 16.8934 88.0873 16.4169C88.4132 16.1427 88.6128 15.7721 88.6128 15.2331C88.6128 13.9757 87.5072 13.5218 86.4128 13.5218C86.0757 13.5218 85.7818 13.5426 85.5822 13.5861V11.8427H84.6667H84.6686ZM85.584 14.2404C85.7743 14.2082 86.0041 14.1874 86.2678 14.1874C86.9628 14.1874 87.6993 14.4408 87.6993 15.2653C87.6993 16.0576 86.9308 16.3526 86.2263 16.3526C85.9626 16.3526 85.763 16.3318 85.584 16.311V14.2404ZM89.257 11.8427V16.9558H90.1724V11.8427H89.257Z" fill="white"/>
<path d="M91.6662 11.8428V16.956H92.7285C93.2766 16.0578 93.8342 15.0764 94.3183 14.284C94.6121 13.7659 94.8344 13.3537 95.1602 12.6994H95.1922C95.1508 13.5239 95.1282 13.9569 95.1282 14.7908V16.956H96.0116V11.8428H94.9285L93.3388 14.4845C93.0016 15.0764 92.8227 15.4356 92.5176 16.0578L92.4855 16.0464C92.527 15.3184 92.5383 14.8097 92.5383 13.9966V11.8409H91.6643L91.6662 11.8428ZM92.4667 9.76086C92.5081 10.4889 92.866 11.0713 93.7927 11.0713C94.6027 11.0713 95.1508 10.6269 95.1922 9.76086H94.5292C94.4765 10.226 94.2655 10.5645 93.8135 10.5645C93.3934 10.5645 93.1712 10.2166 93.1391 9.76086H92.4648H92.4667Z" fill="white"/>
<path d="M99.7278 11.8427V16.9558H103.623L103.664 18.5839H104.382L104.435 16.2656L103.906 16.2562V11.8427H102.99V16.2278H100.643V11.8427H99.7278Z" fill="white"/>
<path d="M109.588 14.5694C109.6 14.4749 109.62 14.3255 109.62 14.1364C109.62 13.1966 109.178 11.7273 107.517 11.7273C106.032 11.7273 105.128 12.9413 105.128 14.4843C105.128 16.0273 106.064 17.0617 107.633 17.0617C108.443 17.0617 109.001 16.8934 109.327 16.744L109.168 16.0784C108.822 16.2259 108.421 16.3431 107.758 16.3431C106.831 16.3431 106.032 15.825 106.012 14.5675H109.59L109.588 14.5694ZM106.021 13.9038C106.094 13.259 106.505 12.3929 107.441 12.3929C108.483 12.3929 108.735 13.3119 108.726 13.9038H106.021Z" fill="white"/>
<path d="M110.745 11.8427V16.9558H111.66V14.6432H114.081V16.9558H114.996V11.8427H114.081V13.9038H111.66V11.8427H110.745Z" fill="white"/>
<path d="M115.829 11.8427V12.582H117.416V16.9558H118.332V12.582H119.922V11.8427H115.829Z" fill="white"/>
<path d="M120.731 19.0472H121.647V16.2694H121.668C121.973 16.7762 122.562 17.073 123.235 17.073C124.434 17.073 125.55 16.1654 125.55 14.3255C125.55 12.773 124.623 11.7273 123.393 11.7273C122.562 11.7273 121.961 12.0979 121.583 12.7201H121.562L121.521 11.8426H120.69C120.711 12.3286 120.731 12.8562 120.731 13.5124V19.0472ZM121.647 13.9965C121.647 13.8698 121.679 13.7317 121.711 13.6164C121.89 12.9186 122.479 12.4648 123.11 12.4648C124.09 12.4648 124.627 13.3422 124.627 14.3671C124.627 15.5395 124.058 16.3431 123.08 16.3431C122.417 16.3431 121.86 15.8988 121.692 15.2558C121.671 15.1405 121.651 15.0138 121.651 14.8757V13.9983L121.647 13.9965Z" fill="white"/>
</svg>

<svg width="126" height="62" fill="none" xmlns="http://www.w3.org/2000/svg"><path fill-rule="evenodd" clip-rule="evenodd" d="M57.042 61.847c-3.68-9.876-7.779-30.66 2.564-35.032 14.79-6.251 14.807 26.271-4.36 12.626.88 5.01 5.38 6.806 11.5 6.059 12.53-1.655 11.12-23.439-4.761-22.786-18.237.749-14.605 35.081-4.943 39.133Z" fill="#fff"/><path fill-rule="evenodd" clip-rule="evenodd" d="M98.969 39.248c-2.79 1.35-2.292 1.587-5.49 2.935-10.756 3.315-15.406-7.877-10.017-13.452 9.148-9.464 20.058 6.588 4.492 7.261l-4.014.649c5.54 3.267 16.274 1.422 15.084-7.176-1.006-7.264-11.358-8.877-16.732-4.35-5.463 4.601-6.005 13.856-.3 18.231 5.659 4.34 15.996 2.625 16.977-4.097ZM32.516 2.084c4.982 1.855 9.518 5.752 12.366 10.226 2.362 3.71 3.697 7.993 3.422 12.422-1.162 18.682-16.997 25.333-33.361 24.934l-1.426-.034-.933-1.086C6.9 41.932.74 33.816.087 24.764c-.56-7.74 1.533-15.499 7.86-20.408C15-1.116 24.494-.904 32.518 2.086l-.002-.002Z" fill="#fff"/><path fill-rule="evenodd" clip-rule="evenodd" d="M31.398 5.113C38.37 7.71 45.645 15.666 45.093 24.529 43.763 45.903 21.45 46.591 15.02 46.436c-3.782-4.4-11.08-12.96-11.725-21.907C2.025 6.964 15.983-.63 31.398 5.113Z" fill="#E84F22"/><path fill-rule="evenodd" clip-rule="evenodd" d="M15.429 5.873c2.14 6.56 20.696 15.07 27.151 12.838C38.591 8.225 24.628 2.78 15.43 5.873Z" fill="#FFCBA1"/><path fill-rule="evenodd" clip-rule="evenodd" d="m113.651 37.895-.045.07-.744 1.14a49.02 49.02 0 0 1-.631.943c-.154.224-.309.452-.486.658-.991 1.156-2.006 2.294-3.217 3.223-1.337 1.026-2.85 1.741-4.558 1.783a6.026 6.026 0 0 1-.614-.021 4.854 4.854 0 0 1-.468-.051c-.146-.026-.348-.074-.363-.257-.008-.09.043-.167.115-.214a24.837 24.837 0 0 0 6.477-6.125 29.089 29.089 0 0 0 1.801-2.781c.362-.634.699-1.279 1.046-1.921-.345-.642-.682-1.288-1.046-1.922a29.089 29.089 0 0 0-1.801-2.781 24.868 24.868 0 0 0-6.477-6.125.23.23 0 0 1-.115-.214c.015-.183.217-.23.363-.257a3.89 3.89 0 0 1 .468-.051c.203-.013.41-.025.614-.02 1.708.039 3.219.754 4.558 1.782 1.209.929 2.226 2.069 3.217 3.223.177.206.332.434.486.657.215.313.424.628.631.944l.744 1.14.045.07.045-.07.744-1.14c.208-.316.417-.631.631-.944.155-.223.309-.451.486-.657.991-1.156 2.006-2.294 3.218-3.223 1.337-1.027 2.849-1.741 4.558-1.783.205-.006.41.006.614.02.156.012.312.026.467.052.147.026.348.074.363.257.008.089-.043.166-.114.214a24.84 24.84 0 0 0-6.478 6.125 29.089 29.089 0 0 0-1.801 2.781c-.361.634-.699 1.279-1.045 1.922.345.64.682 1.287 1.045 1.92.55.96 1.145 1.892 1.801 2.782a24.872 24.872 0 0 0 6.478 6.125.232.232 0 0 1 .114.214c-.015.183-.216.23-.363.257a3.896 3.896 0 0 1-.467.051 7.423 7.423 0 0 1-.614.02c-1.709-.039-3.219-.754-4.558-1.782-1.21-.929-2.227-2.07-3.218-3.223-.177-.206-.331-.434-.486-.658a60.497 60.497 0 0 1-.631-.943l-.744-1.14-.045-.07Z" fill="#fff"/><path d="M53.28 11.843v.739h1.587v4.374h.915v-4.374h1.59v-.74H53.28ZM60.203 11.727c-1.41 0-2.526 1.004-2.526 2.716 0 1.617 1.063 2.63 2.441 2.63 1.232 0 2.536-.824 2.536-2.715 0-1.564-.99-2.63-2.453-2.63h.002Zm-.02.698c1.094 0 1.525 1.099 1.525 1.965 0 1.151-.663 1.985-1.546 1.985-.904 0-1.547-.845-1.547-1.964 0-.972.473-1.986 1.567-1.986ZM63.823 19.047h.916V16.27h.02c.305.507.895.804 1.567.804 1.2 0 2.315-.908 2.315-2.748 0-1.552-.926-2.598-2.156-2.598-.831 0-1.432.37-1.81.993h-.021l-.042-.877h-.83c.02.486.041 1.013.041 1.67v5.534Zm.916-5.05c0-.127.032-.265.064-.38.179-.698.768-1.152 1.4-1.152.979 0 1.515.877 1.515 1.902 0 1.172-.568 1.976-1.546 1.976a1.43 1.43 0 0 1-1.388-1.087 2.115 2.115 0 0 1-.042-.38v-.878l-.003-.002ZM69.789 11.843v5.113h.915v-4.363h2.211v-.75H69.79ZM75.808 11.727c-1.41 0-2.526 1.004-2.526 2.716 0 1.617 1.063 2.63 2.442 2.63 1.231 0 2.535-.824 2.535-2.715 0-1.564-.989-2.63-2.453-2.63h.002Zm-.02.698c1.094 0 1.525 1.099 1.525 1.965 0 1.151-.663 1.985-1.546 1.985-.904 0-1.546-.845-1.546-1.964 0-.972.472-1.986 1.567-1.986ZM79.408 16.956c.273.02.862.064 1.431.064 1 0 2.684-.168 2.684-1.51 0-.74-.548-1.164-1.294-1.268v-.02c.579-.127 1.063-.518 1.063-1.152 0-1.14-1.411-1.278-2.263-1.278-.599 0-1.261.053-1.62.115v5.05l-.001-.001Zm.883-4.48c.22-.02.41-.041.716-.041.927 0 1.367.242 1.367.75 0 .602-.704.804-1.388.804h-.695v-1.513ZM80.28 14.6h.674c.884 0 1.62.159 1.62.898 0 .74-.927.887-1.546.887-.294 0-.485-.011-.748-.042V14.6ZM84.669 11.843v5.092c.378.042.853.074 1.367.074.674 0 1.494-.116 2.051-.592.326-.274.526-.645.526-1.184 0-1.257-1.106-1.711-2.2-1.711-.337 0-.631.02-.83.064v-1.743h-.916.002Zm.915 2.397c.19-.032.42-.053.684-.053.695 0 1.431.254 1.431 1.078 0 .793-.768 1.088-1.473 1.088a5.22 5.22 0 0 1-.642-.042v-2.07Zm3.673-2.397v5.113h.915v-5.113h-.915ZM91.666 11.843v5.113h1.063c.548-.898 1.105-1.88 1.59-2.672.293-.518.515-.93.841-1.585h.032c-.041.825-.064 1.258-.064 2.092v2.165h.884v-5.113h-1.084l-1.59 2.642c-.336.591-.515.95-.82 1.573l-.032-.012c.041-.728.052-1.236.052-2.05v-2.155h-.874l.002.002Zm.8-2.082c.042.728.4 1.31 1.327 1.31.81 0 1.358-.444 1.4-1.31h-.664c-.052.465-.263.804-.715.804-.42 0-.643-.348-.675-.804h-.674.002ZM99.728 11.843v5.113h3.895l.041 1.628h.718l.053-2.318-.529-.01v-4.413h-.916v4.385h-2.347v-4.385h-.915ZM109.588 14.57c.012-.095.032-.245.032-.434 0-.94-.442-2.409-2.103-2.409-1.485 0-2.389 1.214-2.389 2.757 0 1.543.936 2.578 2.505 2.578.81 0 1.368-.169 1.694-.318l-.159-.666c-.346.148-.747.265-1.41.265-.927 0-1.726-.518-1.746-1.775h3.578l-.002.001Zm-3.567-.666c.073-.645.484-1.511 1.42-1.511 1.042 0 1.294.919 1.285 1.51h-2.705ZM110.745 11.843v5.113h.915v-2.313h2.421v2.313h.915v-5.113h-.915v2.06h-2.421v-2.06h-.915ZM115.829 11.843v.739h1.587v4.374h.916v-4.374h1.59v-.74h-4.093ZM120.731 19.047h.916V16.27h.021c.305.507.894.804 1.567.804 1.199 0 2.315-.908 2.315-2.748 0-1.552-.927-2.598-2.157-2.598-.831 0-1.432.37-1.81.993h-.021l-.041-.877h-.831c.021.486.041 1.013.041 1.67v5.534Zm.916-5.05c0-.127.032-.265.064-.38.179-.698.768-1.152 1.399-1.152.98 0 1.517.877 1.517 1.902 0 1.172-.569 1.976-1.547 1.976a1.43 1.43 0 0 1-1.388-1.087 2.09 2.09 0 0 1-.041-.38v-.878l-.004-.002Z" fill="#fff"/></svg>
